X:371
T:Sixarvens polska.
R:polska
S:Uppt. efter »Florsen» i Burs.
N:Sixarven var en gammal spelman i Burs, som levde i första hälften av 1800-talet.
O:Gotland, Burs
M:3/4
L:1/16
K:F
FGAB cdeg f2a2|gfed d4 c4|d2B2 B2d2 d2cB|c2A2 A2c2 c2BA|
A2B2 G2A2 B2d2|cBAG G4 F4::Lc4 cdef gfed|c2c2 cdef gfed|
d2c2 c2c2 f2a2|gfed d4 c4|d3b [d2b2][d2b2] [d2b2][d2b2]|
[d3b3][ca] [c2a2][c2a2] [c2a2][c2a2]|a3g [B2g2][B2g2] g2a2|abeg g4 f4:|

